X: 15758
T: Good For The Tongue
R: hornpipe
M: 4/4
K: Gmajor
|:(3DEF|G>AB>c d>GF>G|e>Gf>G g>GF>G|E>cD>B C>cF>G|A>Bc>A G>FE>D|
G2 (3ABc dG (3GGG|e>Gf>G g>GF>G|E>cD>B C>c (3EFG|B>AG>F G2:|
|:Bc|d>G (3GGG e>G (3GGG|g>f (3gfe d>BG>B|c>de>d c>B (3BAG|F>d^c>d (3=cBA F>D|
G>D (3ABc d2 (3GFG|e>Gf>G g>G (3GGG|E>cD>B C>cF>G|(3BcB (3AGF G2:|

